src/assets/load-icon-grey.svg

<svg width="35" height="25" viewBox="0 0 35 25" fill="none" xmlns="http://www.w3.org/2000/svg">
<path d="M29.5625 6.53683H25V0.502808H3.70829C2.02777 0.502808 0.666626 1.85292 0.666626 3.51982V20.1134H3.70829C3.70829 22.61 5.75381 24.6389 8.27079 24.6389C10.7878 24.6389 12.8333 22.61 12.8333 20.1134H21.9583C21.9583 22.61 24.0038 24.6389 26.5208 24.6389C29.0378 24.6389 31.0833 22.61 31.0833 20.1134H34.125V12.5709L29.5625 6.53683ZM8.27079 22.3762C7.0085 22.3762 5.98954 21.3655 5.98954 20.1134C5.98954 18.8613 7.0085 17.8506 8.27079 17.8506C9.53308 17.8506 10.552 18.8613 10.552 20.1134C10.552 21.3655 9.53308 22.3762 8.27079 22.3762ZM28.802 8.79959L31.7905 12.5709H25V8.79959H28.802ZM26.5208 22.3762C25.2585 22.3762 24.2395 21.3655 24.2395 20.1134C24.2395 18.8613 25.2585 17.8506 26.5208 17.8506C27.7831 17.8506 28.802 18.8613 28.802 20.1134C28.802 21.3655 27.7831 22.3762 26.5208 22.3762Z" fill="#CACACA"/>
</svg>

<svg width="35" height="25" fill="none" xmlns="http://www.w3.org/2000/svg"><path d="M29.563 6.537H25V.503H3.708C2.028.503.667 1.853.667 3.52v16.593h3.041c0 2.497 2.046 4.526 4.563 4.526s4.562-2.029 4.562-4.526h9.125c0 2.497 2.046 4.526 4.563 4.526s4.562-2.029 4.562-4.526h3.042v-7.542l-4.563-6.034zM8.27 22.377a2.269 2.269 0 01-2.281-2.264 2.269 2.269 0 012.28-2.262 2.269 2.269 0 012.282 2.262 2.269 2.269 0 01-2.281 2.263zM28.802 8.8l2.989 3.77H25V8.8h3.802zm-2.281 13.576a2.27 2.27 0 01-2.282-2.263 2.27 2.27 0 012.282-2.262 2.269 2.269 0 012.281 2.262 2.269 2.269 0 01-2.281 2.263z" fill="#CACACA"/></svg>
